X:1
T: The Maid at the Well
C:
R:Jig
Q:180
K:G
M:6/8
L:1/16
A2|G2E2D2 D2E2D2|G2E2G2 c4e2|d2c2B2 A2G2A2|B2A2G2 E4A2|G2E2D2 D2E2D2|G2D2G2 c4e2|d2c2B2 A2G2A2|B2G2G2 G4A2|
G2E2D2 D2E2D2|G2E2G2 c4e2|d2c2B2 A2G2A2|B2A2G2 E4A2|G2E2D2 D2E2D2|G2D2G2 c4e2|d2c2B2 A2G2A2|B2G2G2 G4d2|
g2d2d2 e2d2d2|g2d2B2 c4e2|d2c2B2 A2G2A2|B2A2G2 E4d2|g2d2d2 e2d2d2|g2d2B2 c4e2|d2c2B2 A2G2A2|B2G2G2 G4d2|
g2d2d2 e2d2d2|g2d2B2 c4e2|d2c2B2 A2G2A2|B2A2G2 E4d2|g2d2d2 e2d2d2|g2d2B2 c4e2|d2c2B2 A2G2A2|B2G2G2 G4||
